X: 470
T: Mai cai
L: 1/8
M: 2/4
K: F
d d c d [I:setbarnb 1]| 
c d f d | 
c2-c3/ A/ | 
d d/ d/ c d | 
c AG2 | 
F> G A A | 
c> A c3/ d/ | 
F DC2 | 
c2A c | 
GF2D | 
C4 |]

@@@ Tune index: 9344
